; generated by Slic3r 1.2.9 on 2015-07-31 at 10:24:02

; external perimeters extrusion width = 0.50mm
; perimeters extrusion width = 0.84mm
; infill extrusion width = 0.84mm
; solid infill extrusion width = 0.84mm
; top infill extrusion width = 0.84mm
; support material extrusion width = 0.50mm

M107
M190 S80 ; set bed temperature
M104 S240 ; set temperature
G28 ; home all axes
G1 Z5 F5000 ; lift nozzle

M109 S240 ; wait for temperature to be reached
G21 ; set units to millimeters
G90 ; use absolute coordinates
M82 ; use absolute distances for extrusion
G92 E0
G1 Z0.250 F7800.000
G1 E-2.00000 F2400.00000
G92 E0
G1 X65.339 Y80.382 F7800.000
G1 E2.00000 F2400.00000
G1 X68.043 Y79.570 E2.04458 F1800.000
G1 X83.725 Y78.455 E2.29276
G1 X84.182 Y78.439 E2.29998
G1 X116.136 Y78.439 E2.80442
G1 X116.602 Y78.456 E2.81178 F1800.000
G1 X131.966 Y79.571 E3.05497
G1 X134.159 Y80.128 E3.09068
G1 X136.024 Y81.408 E3.12639
G1 X137.332 Y83.253 E3.16210
G1 X137.946 Y86.000 E3.20653
G1 X137.946 Y114.000 E3.64855
G1 X137.549 Y116.227 E3.68426
G1 X136.408 Y118.180 E3.71997
G1 X134.661 Y119.618 E3.75568
G1 X131.961 Y120.430 E3.80019
G1 X116.424 Y121.545 E4.04610
G1 X115.963 Y121.561 E4.05339
G1 X84.009 Y121.561 E4.55782
G1 X83.547 Y121.544 E4.56512
G1 X68.038 Y120.430 E4.81059
G1 X65.845 Y119.874 E4.84630
G1 X63.979 Y118.595 E4.88201
G1 X62.670 Y116.751 E4.91772
G1 X62.054 Y114.000 E4.96222
G1 X62.054 Y86.000 E5.40423
G1 X62.451 Y83.773 E5.43995
G1 X63.592 Y81.820 E5.47566
G1 X65.281 Y80.430 E5.51018
G1 E3.51018 F2400.00000
G92 E0
G1 X122.643 Y111.143 F7800.000
G1 E2.00000 F2400.00000
G1 X75.357 Y111.143 E2.74647 F1800.000
G1 X75.357 Y88.857 E3.09827
G1 X122.643 Y88.857 E3.84474
G1 X122.643 Y93.535 E3.91859
G1 X122.853 Y93.582 E3.92198
G1 X123.042 Y93.176 E3.92904
G1 X123.406 Y92.656 E3.93907
G1 X123.856 Y92.206 E3.94911
G1 X124.376 Y91.842 E3.95915
G1 X124.953 Y91.573 E3.96918
G1 X125.567 Y91.408 E3.97922
G1 X126.200 Y91.353 E3.98925
G1 X126.833 Y91.408 E3.99929
G1 X127.447 Y91.573 E4.00932
G1 X128.024 Y91.842 E4.01936
G1 X128.544 Y92.206 E4.02940
G1 X128.994 Y92.656 E4.03943
G1 X129.358 Y93.176 E4.04947
G1 X129.627 Y93.753 E4.05950
G1 X129.792 Y94.367 E4.06954
G1 X129.847 Y95.000 E4.07958
G1 X129.792 Y95.633 E4.08961
G1 X129.627 Y96.247 E4.09965
G1 X129.358 Y96.824 E4.10968
G1 X128.994 Y97.344 E4.11972
G1 X128.544 Y97.794 E4.12975
G1 X128.024 Y98.158 E4.13979
G1 X127.447 Y98.427 E4.14983
G1 X126.833 Y98.592 E4.15986
G1 X126.200 Y98.647 E4.16990
G1 X125.567 Y98.592 E4.17993
G1 X124.953 Y98.427 E4.18997
G1 X124.376 Y98.158 E4.20001
G1 X123.856 Y97.794 E4.21004
G1 X123.406 Y97.344 E4.22008
G1 X123.042 Y96.824 E4.23011
G1 X122.853 Y96.418 E4.23717
G1 X122.643 Y96.465 E4.24057
G1 X122.643 Y103.535 E4.35218
G1 X122.853 Y103.582 E4.35558
G1 X123.042 Y103.176 E4.36264
G1 X123.406 Y102.656 E4.37267
G1 X123.856 Y102.206 E4.38271
G1 X124.376 Y101.842 E4.39274
G1 X124.953 Y101.573 E4.40278
G1 X125.567 Y101.408 E4.41282
G1 X126.200 Y101.353 E4.42285
G1 X126.833 Y101.408 E4.43289
G1 X127.447 Y101.573 E4.44292
G1 X128.024 Y101.842 E4.45296
G1 X128.544 Y102.206 E4.46300
G1 X128.994 Y102.656 E4.47303
G1 X129.358 Y103.176 E4.48307
G1 X129.627 Y103.753 E4.49310
G1 X129.792 Y104.367 E4.50314
G1 X129.847 Y105.000 E4.51317
G1 X129.792 Y105.633 E4.52321
G1 X129.627 Y106.247 E4.53325
G1 X129.358 Y106.824 E4.54328
G1 X128.994 Y107.344 E4.55332
G1 X128.544 Y107.794 E4.56335
G1 X128.024 Y108.158 E4.57339
G1 X127.447 Y108.427 E4.58342
G1 X126.833 Y108.592 E4.59346
G1 X126.200 Y108.647 E4.60350
G1 X125.567 Y108.592 E4.61353
G1 X124.953 Y108.427 E4.62357
G1 X124.376 Y108.158 E4.63360
G1 X123.856 Y107.794 E4.64364
G1 X123.406 Y107.344 E4.65368
G1 X123.042 Y106.824 E4.66371
G1 X122.853 Y106.418 E4.67077
G1 X122.643 Y106.465 E4.67416
G1 X122.643 Y111.068 E4.74683
G1 X122.196 Y110.696 F7800.000
G1 X75.804 Y110.696 E5.47920 F1800.000
G1 X75.804 Y89.304 E5.81692
G1 X122.196 Y89.304 E6.54929
G1 X122.196 Y110.621 E6.88582
G1 X121.750 Y110.250 F7800.000
G1 X76.250 Y110.250 E7.60410 F1800.000
G1 X76.250 Y89.750 E7.92772
G1 X121.750 Y89.750 E8.64600
G1 X121.750 Y110.175 E8.96844
G1 X121.750 Y110.750 F7800.000
G1 X125.106 Y98.006 F7800.000
G1 X124.600 Y97.770 E8.97724 F1800.000
G1 X124.144 Y97.451 E8.98604
G1 X123.749 Y97.056 E8.99485
G1 X123.430 Y96.599 E9.00365
G1 X123.194 Y96.094 E9.01245
G1 X123.050 Y95.556 E9.02125
G1 X123.001 Y95.000 E9.03006
G1 X123.050 Y94.444 E9.03886
G1 X123.194 Y93.906 E9.04766
G1 X123.430 Y93.401 E9.05647
G1 X123.749 Y92.944 E9.06527
G1 X124.144 Y92.549 E9.07407
G1 X124.600 Y92.230 E9.08287
G1 X125.106 Y91.994 E9.09168
G1 X125.645 Y91.850 E9.10048
G1 X126.200 Y91.801 E9.10928 F1800.000
G1 X126.756 Y91.850 E9.11809
G1 X127.294 Y91.994 E9.12689
G1 X127.800 Y92.230 E9.13569
G1 X128.256 Y92.549 E9.14449
G1 X128.651 Y92.944 E9.15330
G1 X128.970 Y93.401 E9.16210
G1 X129.206 Y93.906 E9.17090
G1 X129.350 Y94.444 E9.17971
G1 X129.399 Y95.000 E9.18851
G1 X129.350 Y95.556 E9.19731
G1 X129.206 Y96.094 E9.20611
G1 X128.970 Y96.599 E9.21492
G1 X128.651 Y97.056 E9.22372
G1 X128.256 Y97.451 E9.23252
G1 X127.800 Y97.770 E9.24133
G1 X127.294 Y98.006 E9.25013
G1 X126.756 Y98.150 E9.25893
G1 X126.200 Y98.199 E9.26773
G1 X125.644 Y98.150 E9.27654
G1 X125.178 Y98.025 E9.28416
G1 X125.259 Y97.585 F7800.000
G1 X124.825 Y97.382 E9.29173 F1800.000
G1 X124.432 Y97.107 E9.29930
G1 X124.093 Y96.768 E9.30687
G1 X123.818 Y96.375 E9.31444
G1 X123.615 Y95.941 E9.32201
G1 X123.491 Y95.478 E9.32958
G1 X123.449 Y95.000 E9.33715
G1 X123.491 Y94.522 E9.34472
G1 X123.615 Y94.059 E9.35229
G1 X123.818 Y93.625 E9.35986
G1 X124.093 Y93.232 E9.36743
G1 X124.432 Y92.893 E9.37500
G1 X124.825 Y92.618 E9.38257
G1 X125.259 Y92.415 E9.39014
G1 X125.722 Y92.291 E9.39771
G1 X126.200 Y92.249 E9.40528 F1800.000
G1 X126.678 Y92.291 E9.41285
G1 X127.141 Y92.415 E9.42042
G1 X127.575 Y92.618 E9.42799
G1 X127.968 Y92.893 E9.43555
G1 X128.307 Y93.232 E9.44313
G1 X128.582 Y93.625 E9.45069
G1 X128.785 Y94.059 E9.45826
G1 X128.909 Y94.522 E9.46583
G1 X128.951 Y95.000 E9.47340
G1 X128.909 Y95.478 E9.48097
G1 X128.785 Y95.941 E9.48854
G1 X128.582 Y96.375 E9.49611
G1 X128.307 Y96.768 E9.50368
G1 X127.968 Y97.107 E9.51125
G1 X127.575 Y97.382 E9.51882
G1 X127.141 Y97.585 E9.52639
G1 X126.678 Y97.709 E9.53396
G1 X126.200 Y97.751 E9.54153
G1 X125.722 Y97.709 E9.54910
G1 X125.332 Y97.604 E9.55549
G1 X124.883 Y97.882 F7800.000
G1 X125.644 Y101.850 F7800.000
G1 X126.200 Y101.801 E9.56429 F1800.000
G1 X126.756 Y101.850 E9.57310
G1 X127.294 Y101.994 E9.58190
G1 X127.800 Y102.230 E9.59070
G1 X128.256 Y102.549 E9.59950
G1 X128.651 Y102.944 E9.60831
G1 X128.970 Y103.401 E9.61711
G1 X129.206 Y103.906 E9.62591
G1 X129.350 Y104.444 E9.63472
G1 X129.399 Y105.000 E9.64352
G1 X129.350 Y105.556 E9.65232
G1 X129.206 Y106.094 E9.66112
G1 X128.970 Y106.599 E9.66993
G1 X128.651 Y107.056 E9.67873
G1 X128.256 Y107.451 E9.68753
G1 X127.800 Y107.770 E9.69634
G1 X127.294 Y108.006 E9.70514
G1 X126.755 Y108.150 E9.71394
G1 X126.200 Y108.199 E9.72274
G1 X125.644 Y108.150 E9.73155
G1 X125.106 Y108.006 E9.74035
G1 X124.600 Y107.770 E9.74915
G1 X124.144 Y107.451 E9.75796
G1 X123.749 Y107.056 E9.76676
G1 X123.430 Y106.599 E9.77556
G1 X123.194 Y106.094 E9.78436
G1 X123.050 Y105.556 E9.79317
G1 X123.001 Y105.000 E9.80197
G1 X123.050 Y104.444 E9.81077
G1 X123.194 Y103.906 E9.81958
G1 X123.430 Y103.400 E9.82838
G1 X123.749 Y102.944 E9.83718
G1 X124.144 Y102.549 E9.84598
G1 X124.600 Y102.230 E9.85479
G1 X125.106 Y101.994 E9.86359
G1 X125.572 Y101.869 E9.87121
G1 X125.722 Y102.291 F7800.000
G1 X126.200 Y102.249 E9.87878 F1800.000
G1 X126.678 Y102.291 E9.88635
G1 X127.141 Y102.415 E9.89392
G1 X127.575 Y102.618 E9.90149
G1 X127.968 Y102.893 E9.90906
G1 X128.307 Y103.232 E9.91663
G1 X128.582 Y103.625 E9.92420
G1 X128.785 Y104.059 E9.93177
G1 X128.909 Y104.522 E9.93934
G1 X128.951 Y105.000 E9.94691
G1 X128.909 Y105.478 E9.95448
G1 X128.785 Y105.941 E9.96205
G1 X128.582 Y106.375 E9.96962
G1 X128.307 Y106.768 E9.97719
G1 X127.968 Y107.107 E9.98476
G1 X127.575 Y107.382 E9.99233
G1 X127.141 Y107.585 E9.99990
G1 X126.678 Y107.709 E10.00747
G1 X126.200 Y107.751 E10.01504
G1 X125.722 Y107.709 E10.02261
G1 X125.259 Y107.585 E10.03018
G1 X124.825 Y107.382 E10.03775
G1 X124.432 Y107.107 E10.04532
G1 X124.093 Y106.768 E10.05289
G1 X123.818 Y106.375 E10.06046
G1 X123.615 Y105.941 E10.06803
G1 X123.491 Y105.478 E10.07560
G1 X123.449 Y105.000 E10.08317
G1 X123.491 Y104.522 E10.09074
G1 X123.615 Y104.059 E10.09831
G1 X123.818 Y103.625 E10.10588
G1 X124.093 Y103.232 E10.11345
G1 X124.432 Y102.893 E10.12102
G1 X124.825 Y102.618 E10.12859
G1 X125.259 Y102.415 E10.13616
G1 X125.650 Y102.310 E10.14254
G1 X125.899 Y101.845 F7800.000
G1 E8.14254 F2400.00000
G92 E0
G1 X70.643 Y104.683 F7800.000
G1 E2.00000 F2400.00000
G1 X70.643 Y95.317 E2.14786 F1800.000
G1 X69.643 Y95.317 E2.16365
G1 X69.643 Y87.143 E2.29269
G1 X130.357 Y87.143 E3.25115
G1 X130.357 Y112.857 E3.65709
G1 X69.643 Y112.857 E4.61556
G1 X69.643 Y104.683 E4.74460
G1 X70.568 Y104.683 E4.75920
G1 X70.196 Y104.237 F7800.000
G1 X70.196 Y95.763 E4.89297 F1800.000
G1 X69.196 Y95.763 E4.90875
G1 X69.196 Y86.696 E5.05189
G1 X130.804 Y86.696 E6.02444
G1 X130.804 Y113.304 E6.44448
G1 X69.196 Y113.304 E7.41703
G1 X69.196 Y104.237 E7.56016
G1 X70.121 Y104.237 E7.57477
G1 X69.750 Y103.790 F7800.000
G1 X69.750 Y96.210 E7.69444 F1800.000
G1 X68.750 Y96.210 E7.71023
G1 X68.750 Y86.250 E7.86745
G1 X131.250 Y86.250 E8.85410
G1 X131.250 Y113.750 E9.28823
G1 X68.750 Y113.750 E10.27488
G1 X68.750 Y103.790 E10.43210
G1 X69.675 Y103.790 E10.44670
G1 X70.250 Y103.790 F7800.000
G1 X70.907 Y104.492 F7800.000
G1 X75.093 Y108.677 E10.54050 F1800.000
G1 X75.093 Y108.044 E10.55054
G1 X70.907 Y103.858 E10.64434
G1 X70.907 Y103.225 E10.65438
G1 X75.093 Y107.410 E10.74818
G1 X75.093 Y106.776 E10.75822
G1 X70.907 Y102.591 E10.85202
G1 X70.907 Y101.957 E10.86206
G1 X75.093 Y106.142 E10.95586
G1 X75.093 Y105.509 E10.96590
G1 X70.907 Y101.324 E11.05970
G1 X70.907 Y100.690 E11.06974
G1 X75.093 Y104.875 E11.16354
G1 X75.093 Y104.241 E11.17358
G1 X70.907 Y100.056 E11.26737
G1 X70.907 Y99.423 E11.27742
G1 X75.093 Y103.608 E11.37121
G1 X75.093 Y102.974 E11.38126
G1 X70.907 Y98.789 E11.47505
G1 X70.907 Y98.155 E11.48509
G1 X75.093 Y102.340 E11.57889
G1 X75.093 Y101.707 E11.58893
G1 X70.907 Y97.522 E11.68273
G1 X70.907 Y96.888 E11.69277
G1 X75.093 Y101.073 E11.78657
G1 X75.093 Y100.439 E11.79661
G1 X70.907 Y96.254 E11.89041
G1 X70.907 Y95.621 E11.90045
G1 X75.093 Y99.806 E11.99425
G1 X75.093 Y99.172 E12.00429
G1 X69.907 Y93.987 E12.12050
G1 X69.907 Y93.353 E12.13054
G1 X75.093 Y98.538 E12.24675
G1 X75.093 Y97.905 E12.25679
G1 X69.907 Y92.720 E12.37300
G1 X69.907 Y92.086 E12.38304
G1 X75.093 Y97.271 E12.49925
G1 X75.093 Y96.637 E12.50929
G1 X69.907 Y91.452 E12.62550
G1 X69.907 Y90.819 E12.63554
G1 X75.093 Y96.004 E12.75175
G1 X75.093 Y95.370 E12.76179
G1 X69.907 Y90.185 E12.87800
G1 X69.907 Y89.551 E12.88804
G1 X75.093 Y94.736 E13.00425
G1 X75.093 Y94.103 E13.01429
G1 X69.907 Y88.918 E13.13050
G1 X69.907 Y88.284 E13.14054
G1 X75.093 Y93.469 E13.25675
G1 X75.093 Y92.835 E13.26679
G1 X69.907 Y87.650 E13.38300
G1 X70.298 Y87.407 E13.39030
G1 X75.093 Y92.202 E13.49774
G1 X75.093 Y91.568 E13.50779
G1 X70.932 Y87.407 E13.60103
G1 X71.566 Y87.407 E13.61108
G1 X75.093 Y90.934 E13.69012
G1 X75.093 Y90.301 E13.70016
G1 X72.199 Y87.407 E13.76501
G1 X72.833 Y87.407 E13.77505
G1 X75.093 Y89.667 E13.82569
G1 X75.093 Y89.033 E13.83573
G1 X73.467 Y87.407 E13.87218
G1 X74.100 Y87.407 E13.88222
G1 X75.285 Y88.593 E13.90878
G1 X75.919 Y88.593 E13.91882
G1 X74.734 Y87.407 E13.94538
G1 X75.368 Y87.407 E13.95543
G1 X76.553 Y88.593 E13.98199
G1 X77.186 Y88.593 E13.99203
G1 X76.001 Y87.407 E14.01859
G1 X76.635 Y87.407 E14.02864
G1 X77.820 Y88.593 E14.05520
G1 X78.454 Y88.593 E14.06524
G1 X77.269 Y87.407 E14.09180
G1 X77.902 Y87.407 E14.10184
G1 X79.088 Y88.593 E14.12841
G1 X79.721 Y88.593 E14.13845
G1 X78.536 Y87.407 E14.16501
G1 X79.170 Y87.407 E14.17505
G1 X80.355 Y88.593 E14.20162
G1 X80.989 Y88.593 E14.21166
G1 X79.803 Y87.407 E14.23822
G1 X80.437 Y87.407 E14.24826
G1 X81.622 Y88.593 E14.27483
G1 X82.256 Y88.593 E14.28487
G1 X81.071 Y87.407 E14.31143
G1 X81.704 Y87.407 E14.32147
G1 X82.890 Y88.593 E14.34803
G1 X83.523 Y88.593 E14.35808
G1 X82.338 Y87.407 E14.38464
G1 X82.972 Y87.407 E14.39468
G1 X84.157 Y88.593 E14.42124
G1 X84.791 Y88.593 E14.43129
G1 X83.605 Y87.407 E14.45785
G1 X84.239 Y87.407 E14.46789
G1 X85.424 Y88.593 E14.49445
G1 X86.058 Y88.593 E14.50449
G1 X84.873 Y87.407 E14.53106
G1 X85.506 Y87.407 E14.54110
G1 X86.692 Y88.593 E14.56766
G1 X87.325 Y88.593 E14.57770
G1 X86.140 Y87.407 E14.60427
G1 X86.774 Y87.407 E14.61431
G1 X87.959 Y88.593 E14.64087
G1 X88.593 Y88.593 E14.65091
G1 X87.407 Y87.407 E14.67747
G1 X88.041 Y87.407 E14.68752
G1 X89.226 Y88.593 E14.71408
G1 X89.860 Y88.593 E14.72412
G1 X88.675 Y87.407 E14.75068
G1 X89.308 Y87.407 E14.76073
G1 X90.494 Y88.593 E14.78729
G1 X91.127 Y88.593 E14.79733
G1 X89.942 Y87.407 E14.82389
G1 X90.576 Y87.407 E14.83393
G1 X91.761 Y88.593 E14.86050
G1 X92.395 Y88.593 E14.87054
G1 X91.209 Y87.407 E14.89710
G1 X91.843 Y87.407 E14.90714
G1 X93.028 Y88.593 E14.93371
G1 X93.662 Y88.593 E14.94375
G1 X92.477 Y87.407 E14.97031
G1 X93.110 Y87.407 E14.98035
G1 X94.296 Y88.593 E15.00692
G1 X94.929 Y88.593 E15.01696
G1 X93.744 Y87.407 E15.04352
G1 X94.378 Y87.407 E15.05356
G1 X95.563 Y88.593 E15.08012
G1 X96.197 Y88.593 E15.09017
G1 X95.011 Y87.407 E15.11673
G1 X95.645 Y87.407 E15.12677
G1 X96.830 Y88.593 E15.15333
G1 X97.464 Y88.593 E15.16337
G1 X96.279 Y87.407 E15.18994
G1 X96.912 Y87.407 E15.19998
G1 X98.098 Y88.593 E15.22654
G1 X98.731 Y88.593 E15.23658
G1 X97.546 Y87.407 E15.26315
G1 X98.180 Y87.407 E15.27319
G1 X99.365 Y88.593 E15.29975
G1 X99.999 Y88.593 E15.30979
G1 X98.813 Y87.407 E15.33636
G1 X99.447 Y87.407 E15.34640
G1 X100.632 Y88.593 E15.37296
G1 X101.266 Y88.593 E15.38300
G1 X100.081 Y87.407 E15.40956
G1 X100.714 Y87.407 E15.41961
G1 X101.900 Y88.593 E15.44617
G1 X102.533 Y88.593 E15.45621
G1 X101.348 Y87.407 E15.48277
G1 X101.982 Y87.407 E15.49282
G1 X103.167 Y88.593 E15.51938
G1 X103.801 Y88.593 E15.52942
G1 X102.615 Y87.407 E15.55598
G1 X103.249 Y87.407 E15.56602
G1 X104.434 Y88.593 E15.59259
G1 X105.068 Y88.593 E15.60263
G1 X103.883 Y87.407 E15.62919
G1 X104.516 Y87.407 E15.63923
G1 X105.702 Y88.593 E15.66580
G1 X106.335 Y88.593 E15.67584
G1 X105.150 Y87.407 E15.70240
G1 X105.784 Y87.407 E15.71244
G1 X106.969 Y88.593 E15.73901
G1 X107.603 Y88.593 E15.74905
G1 X106.417 Y87.407 E15.77561
G1 X107.051 Y87.407 E15.78565
G1 X108.236 Y88.593 E15.81221
G1 X108.870 Y88.593 E15.82226
G1 X107.685 Y87.407 E15.84882
G1 X108.318 Y87.407 E15.85886
G1 X109.504 Y88.593 E15.88542
G1 X110.137 Y88.593 E15.89547
G1 X108.952 Y87.407 E15.92203
G1 X109.586 Y87.407 E15.93207
G1 X110.771 Y88.593 E15.95863
G1 X111.405 Y88.593 E15.96867
G1 X110.219 Y87.407 E15.99524
G1 X110.853 Y87.407 E16.00528
G1 X112.038 Y88.593 E16.03184
G1 X112.672 Y88.593 E16.04188
G1 X111.487 Y87.407 E16.06845
G1 X112.120 Y87.407 E16.07849
G1 X113.306 Y88.593 E16.10505
G1 X113.939 Y88.593 E16.11509
G1 X112.754 Y87.407 E16.14165
G1 X113.388 Y87.407 E16.15170
G1 X114.573 Y88.593 E16.17826
G1 X115.207 Y88.593 E16.18830
G1 X114.021 Y87.407 E16.21486
G1 X114.655 Y87.407 E16.22491
G1 X115.840 Y88.593 E16.25147
G1 X116.474 Y88.593 E16.26151
G1 X115.289 Y87.407 E16.28807
G1 X115.922 Y87.407 E16.29812
G1 X117.108 Y88.593 E16.32468
G1 X117.741 Y88.593 E16.33472
G1 X116.556 Y87.407 E16.36128
G1 X117.190 Y87.407 E16.37132
G1 X118.375 Y88.593 E16.39789
G1 X119.009 Y88.593 E16.40793
G1 X117.824 Y87.407 E16.43449
G1 X118.457 Y87.407 E16.44453
G1 X119.642 Y88.593 E16.47110
G1 X120.276 Y88.593 E16.48114
G1 X119.091 Y87.407 E16.50770
G1 X119.725 Y87.407 E16.51774
G1 X120.910 Y88.593 E16.54430
G1 X121.543 Y88.593 E16.55435
G1 X120.358 Y87.407 E16.58091
G1 X120.992 Y87.407 E16.59095
G1 X122.177 Y88.593 E16.61751
G1 X122.907 Y91.858 F7800.000
G1 X123.396 Y92.347 E16.62847 F1800.000
G1 X123.713 Y92.030 E16.63557
G1 X122.907 Y91.224 E16.65363
